presets/01-Film-Portra-Warm.xmp
<x:xmpmeta xmlns:x="adobe:ns:meta/" x:xmptk="Adobe XMP Core 5.6-c145">
 <rdf:RDF xmlns:rdf="http://www.w3.org/1999/02/22-rdf-syntax-ns#">
  <rdf:Description rdf:about=""
    xmlns:crs="http://ns.adobe.com/camera-raw-settings/1.0/"
    crs:PresetType="Normal"
    crs:UUID="10FCC6E2FF954E97A707952B2F584AE8"
    crs:SupportsAmount="True"
    crs:SupportsColor="True"
    crs:SupportsMonochrome="False"
    crs:SupportsHighDynamicRange="True"
    crs:SupportsNormalDynamicRange="True"
    crs:SupportsSceneReferred="True"
    crs:SupportsOutputReferred="True"
    crs:CameraModelRestriction=""
    crs:Copyright=""
    crs:ContactInfo=""
    crs:Version="15.4"
    crs:ProcessVersion="15.4"
    crs:WhiteBalance="As Shot"
    crs:Contrast2012="-10"
    crs:Highlights2012="-20"
    crs:Shadows2012="+25"
    crs:Whites2012="-10"
    crs:Blacks2012="+12"
    crs:Texture="+5"
    crs:Clarity2012="-6"
    crs:Dehaze="-4"
    crs:Vibrance="+12"
    crs:Saturation="-6"
    crs:ParametricShadows="0"
    crs:ParametricDarks="0"
    crs:ParametricLights="0"
    crs:ParametricHighlights="0"
    crs:ParametricShadowSplit="25"
    crs:ParametricMidtoneSplit="50"
    crs:ParametricHighlightSplit="75"
    crs:HueAdjustmentRed="+6"
    crs:HueAdjustmentOrange="-4"
    crs:HueAdjustmentYellow="-12"
    crs:HueAdjustmentGreen="-20"
    crs:HueAdjustmentAqua="-8"
    crs:HueAdjustmentBlue="+5"
    crs:HueAdjustmentPurple="0"
    crs:HueAdjustmentMagenta="0"
    crs:SaturationAdjustmentRed="-8"
    crs:SaturationAdjustmentOrange="-6"
    crs:SaturationAdjustmentYellow="-14"
    crs:SaturationAdjustmentGreen="-22"
    crs:SaturationAdjustmentAqua="-14"
    crs:SaturationAdjustmentBlue="-10"
    crs:SaturationAdjustmentPurple="-10"
    crs:SaturationAdjustmentMagenta="-6"
    crs:LuminanceAdjustmentRed="+5"
    crs:LuminanceAdjustmentOrange="+8"
    crs:LuminanceAdjustmentYellow="+6"
    crs:LuminanceAdjustmentGreen="+10"
    crs:LuminanceAdjustmentAqua="+4"
    crs:LuminanceAdjustmentBlue="-6"
    crs:LuminanceAdjustmentPurple="0"
    crs:LuminanceAdjustmentMagenta="0"
    crs:SplitToningShadowHue="200"
    crs:SplitToningShadowSaturation="12"
    crs:SplitToningHighlightHue="48"
    crs:SplitToningHighlightSaturation="10"
    crs:SplitToningBalance="0"
    crs:ColorGradeMidtoneHue="40"
    crs:ColorGradeMidtoneSat="8"
    crs:ColorGradeMidtoneLum="0"
    crs:ColorGradeShadowLum="0"
    crs:ColorGradeHighlightLum="0"
    crs:ColorGradeGlobalHue="0"
    crs:ColorGradeGlobalSat="0"
    crs:ColorGradeGlobalLum="0"
    crs:ColorGradeBlending="50"
    crs:GrainAmount="22"
    crs:GrainSize="24"
    crs:GrainFrequency="50"
    crs:PostCropVignetteAmount="-8"
    crs:PostCropVignetteMidpoint="50"
    crs:PostCropVignetteFeather="60"
    crs:PostCropVignetteRoundness="0"
    crs:PostCropVignetteStyle="1"
    crs:PostCropVignetteHighlightContrast="0"
    crs:HasSettings="True">
   <crs:Name>
    <rdf:Alt>
     <rdf:li xml:lang="x-default">Film - Portra Warm</rdf:li>
    </rdf:Alt>
   </crs:Name>
   <crs:ShortName>
    <rdf:Alt>
     <rdf:li xml:lang="x-default">Portra Warm</rdf:li>
    </rdf:Alt>
   </crs:ShortName>
   <crs:Group>
    <rdf:Alt>
     <rdf:li xml:lang="x-default">Film Look</rdf:li>
    </rdf:Alt>
   </crs:Group>
   <crs:Description>
    <rdf:Alt>
     <rdf:li xml:lang="x-default">Warm Kodak Portra-style everyday film look: lifted matte blacks, glowing skin tones, muted greens and cool shadows.</rdf:li>
    </rdf:Alt>
   </crs:Description>
   <crs:ToneCurvePV2012>
    <rdf:Seq>
     <rdf:li>0, 22</rdf:li>
     <rdf:li>64, 60</rdf:li>
     <rdf:li>128, 128</rdf:li>
     <rdf:li>192, 196</rdf:li>
     <rdf:li>255, 244</rdf:li>
    </rdf:Seq>
   </crs:ToneCurvePV2012>
   <crs:ToneCurvePV2012Red>
    <rdf:Seq>
     <rdf:li>0, 10</rdf:li>
     <rdf:li>128, 128</rdf:li>
     <rdf:li>255, 250</rdf:li>
    </rdf:Seq>
   </crs:ToneCurvePV2012Red>
   <crs:ToneCurvePV2012Green>
    <rdf:Seq>
     <rdf:li>0, 6</rdf:li>
     <rdf:li>128, 128</rdf:li>
     <rdf:li>255, 252</rdf:li>
    </rdf:Seq>
   </crs:ToneCurvePV2012Green>
   <crs:ToneCurvePV2012Blue>
    <rdf:Seq>
     <rdf:li>0, 20</rdf:li>
     <rdf:li>128, 124</rdf:li>
     <rdf:li>255, 232</rdf:li>
    </rdf:Seq>
   </crs:ToneCurvePV2012Blue>
  </rdf:Description>
 </rdf:RDF>
</x:xmpmeta>
