presets/02-Film-Cinematic-Teal-Orange.xmp
<x:xmpmeta xmlns:x="adobe:ns:meta/" x:xmptk="Adobe XMP Core 5.6-c145">
 <rdf:RDF xmlns:rdf="http://www.w3.org/1999/02/22-rdf-syntax-ns#">
  <rdf:Description rdf:about=""
    xmlns:crs="http://ns.adobe.com/camera-raw-settings/1.0/"
    crs:PresetType="Normal"
    crs:UUID="FF9C1CFBC5CA4D14AC659D8A5FA0A868"
    crs:SupportsAmount="True"
    crs:SupportsColor="True"
    crs:SupportsMonochrome="False"
    crs:SupportsHighDynamicRange="True"
    crs:SupportsNormalDynamicRange="True"
    crs:SupportsSceneReferred="True"
    crs:SupportsOutputReferred="True"
    crs:CameraModelRestriction=""
    crs:Copyright=""
    crs:ContactInfo=""
    crs:Version="15.4"
    crs:ProcessVersion="15.4"
    crs:WhiteBalance="As Shot"
    crs:Contrast2012="+8"
    crs:Highlights2012="-30"
    crs:Shadows2012="+30"
    crs:Whites2012="-6"
    crs:Blacks2012="+8"
    crs:Texture="+8"
    crs:Clarity2012="-3"
    crs:Dehaze="+3"
    crs:Vibrance="+6"
    crs:Saturation="-10"
    crs:ParametricShadows="0"
    crs:ParametricDarks="0"
    crs:ParametricLights="0"
    crs:ParametricHighlights="0"
    crs:ParametricShadowSplit="25"
    crs:ParametricMidtoneSplit="50"
    crs:ParametricHighlightSplit="75"
    crs:HueAdjustmentRed="+4"
    crs:HueAdjustmentOrange="-6"
    crs:HueAdjustmentYellow="-10"
    crs:HueAdjustmentGreen="-25"
    crs:HueAdjustmentAqua="-15"
    crs:HueAdjustmentBlue="+8"
    crs:HueAdjustmentPurple="0"
    crs:HueAdjustmentMagenta="0"
    crs:SaturationAdjustmentRed="-6"
    crs:SaturationAdjustmentOrange="-4"
    crs:SaturationAdjustmentYellow="-16"
    crs:SaturationAdjustmentGreen="-30"
    crs:SaturationAdjustmentAqua="-18"
    crs:SaturationAdjustmentBlue="-6"
    crs:SaturationAdjustmentPurple="-12"
    crs:SaturationAdjustmentMagenta="-8"
    crs:LuminanceAdjustmentRed="+4"
    crs:LuminanceAdjustmentOrange="+10"
    crs:LuminanceAdjustmentYellow="+4"
    crs:LuminanceAdjustmentGreen="+6"
    crs:LuminanceAdjustmentAqua="0"
    crs:LuminanceAdjustmentBlue="-12"
    crs:LuminanceAdjustmentPurple="0"
    crs:LuminanceAdjustmentMagenta="0"
    crs:SplitToningShadowHue="195"
    crs:SplitToningShadowSaturation="18"
    crs:SplitToningHighlightHue="45"
    crs:SplitToningHighlightSaturation="8"
    crs:SplitToningBalance="-10"
    crs:ColorGradeMidtoneHue="30"
    crs:ColorGradeMidtoneSat="6"
    crs:ColorGradeMidtoneLum="0"
    crs:ColorGradeShadowLum="-3"
    crs:ColorGradeHighlightLum="0"
    crs:ColorGradeGlobalHue="0"
    crs:ColorGradeGlobalSat="0"
    crs:ColorGradeGlobalLum="0"
    crs:ColorGradeBlending="55"
    crs:GrainAmount="18"
    crs:GrainSize="22"
    crs:GrainFrequency="50"
    crs:PostCropVignetteAmount="-12"
    crs:PostCropVignetteMidpoint="50"
    crs:PostCropVignetteFeather="60"
    crs:PostCropVignetteRoundness="0"
    crs:PostCropVignetteStyle="1"
    crs:PostCropVignetteHighlightContrast="0"
    crs:HasSettings="True">
   <crs:Name>
    <rdf:Alt>
     <rdf:li xml:lang="x-default">Film - Cinematic Teal &amp; Orange</rdf:li>
    </rdf:Alt>
   </crs:Name>
   <crs:ShortName>
    <rdf:Alt>
     <rdf:li xml:lang="x-default">Cinematic T&amp;O</rdf:li>
    </rdf:Alt>
   </crs:ShortName>
   <crs:Group>
    <rdf:Alt>
     <rdf:li xml:lang="x-default">Film Look</rdf:li>
    </rdf:Alt>
   </crs:Group>
   <crs:Description>
    <rdf:Alt>
     <rdf:li xml:lang="x-default">Moody cinema teal-and-orange grade: cool teal shadows, warm orange skin, crushed-but-lifted blacks. Great for portraits, street and video.</rdf:li>
    </rdf:Alt>
   </crs:Description>
   <crs:ToneCurvePV2012>
    <rdf:Seq>
     <rdf:li>0, 18</rdf:li>
     <rdf:li>64, 52</rdf:li>
     <rdf:li>128, 128</rdf:li>
     <rdf:li>192, 205</rdf:li>
     <rdf:li>255, 246</rdf:li>
    </rdf:Seq>
   </crs:ToneCurvePV2012>
   <crs:ToneCurvePV2012Red>
    <rdf:Seq>
     <rdf:li>0, 8</rdf:li>
     <rdf:li>128, 130</rdf:li>
     <rdf:li>255, 252</rdf:li>
    </rdf:Seq>
   </crs:ToneCurvePV2012Red>
   <crs:ToneCurvePV2012Green>
    <rdf:Seq>
     <rdf:li>0, 6</rdf:li>
     <rdf:li>128, 128</rdf:li>
     <rdf:li>255, 250</rdf:li>
    </rdf:Seq>
   </crs:ToneCurvePV2012Green>
   <crs:ToneCurvePV2012Blue>
    <rdf:Seq>
     <rdf:li>0, 24</rdf:li>
     <rdf:li>128, 122</rdf:li>
     <rdf:li>255, 226</rdf:li>
    </rdf:Seq>
   </crs:ToneCurvePV2012Blue>
  </rdf:Description>
 </rdf:RDF>
</x:xmpmeta>
