presets/03-Film-Faded-Matte.xmp
<x:xmpmeta xmlns:x="adobe:ns:meta/" x:xmptk="Adobe XMP Core 5.6-c145">
 <rdf:RDF xmlns:rdf="http://www.w3.org/1999/02/22-rdf-syntax-ns#">
  <rdf:Description rdf:about=""
    xmlns:crs="http://ns.adobe.com/camera-raw-settings/1.0/"
    crs:PresetType="Normal"
    crs:UUID="C42D38AA8D6646D6A4C84F94417EBB71"
    crs:SupportsAmount="True"
    crs:SupportsColor="True"
    crs:SupportsMonochrome="False"
    crs:SupportsHighDynamicRange="True"
    crs:SupportsNormalDynamicRange="True"
    crs:SupportsSceneReferred="True"
    crs:SupportsOutputReferred="True"
    crs:CameraModelRestriction=""
    crs:Copyright=""
    crs:ContactInfo=""
    crs:Version="15.4"
    crs:ProcessVersion="15.4"
    crs:WhiteBalance="As Shot"
    crs:Contrast2012="-18"
    crs:Highlights2012="-10"
    crs:Shadows2012="+30"
    crs:Whites2012="-18"
    crs:Blacks2012="+22"
    crs:Texture="-6"
    crs:Clarity2012="-12"
    crs:Dehaze="-8"
    crs:Vibrance="+8"
    crs:Saturation="-14"
    crs:ParametricShadows="0"
    crs:ParametricDarks="0"
    crs:ParametricLights="0"
    crs:ParametricHighlights="0"
    crs:ParametricShadowSplit="25"
    crs:ParametricMidtoneSplit="50"
    crs:ParametricHighlightSplit="75"
    crs:HueAdjustmentRed="+8"
    crs:HueAdjustmentOrange="-4"
    crs:HueAdjustmentYellow="-14"
    crs:HueAdjustmentGreen="-22"
    crs:HueAdjustmentAqua="-10"
    crs:HueAdjustmentBlue="+6"
    crs:HueAdjustmentPurple="0"
    crs:HueAdjustmentMagenta="0"
    crs:SaturationAdjustmentRed="-10"
    crs:SaturationAdjustmentOrange="-8"
    crs:SaturationAdjustmentYellow="-18"
    crs:SaturationAdjustmentGreen="-26"
    crs:SaturationAdjustmentAqua="-16"
    crs:SaturationAdjustmentBlue="-14"
    crs:SaturationAdjustmentPurple="-12"
    crs:SaturationAdjustmentMagenta="-8"
    crs:LuminanceAdjustmentRed="+6"
    crs:LuminanceAdjustmentOrange="+10"
    crs:LuminanceAdjustmentYellow="+8"
    crs:LuminanceAdjustmentGreen="+12"
    crs:LuminanceAdjustmentAqua="+6"
    crs:LuminanceAdjustmentBlue="-4"
    crs:LuminanceAdjustmentPurple="0"
    crs:LuminanceAdjustmentMagenta="0"
    crs:SplitToningShadowHue="210"
    crs:SplitToningShadowSaturation="14"
    crs:SplitToningHighlightHue="55"
    crs:SplitToningHighlightSaturation="12"
    crs:SplitToningBalance="+10"
    crs:ColorGradeMidtoneHue="45"
    crs:ColorGradeMidtoneSat="6"
    crs:ColorGradeMidtoneLum="0"
    crs:ColorGradeShadowLum="+3"
    crs:ColorGradeHighlightLum="0"
    crs:ColorGradeGlobalHue="0"
    crs:ColorGradeGlobalSat="0"
    crs:ColorGradeGlobalLum="0"
    crs:ColorGradeBlending="50"
    crs:GrainAmount="25"
    crs:GrainSize="26"
    crs:GrainFrequency="50"
    crs:PostCropVignetteAmount="-6"
    crs:PostCropVignetteMidpoint="50"
    crs:PostCropVignetteFeather="70"
    crs:PostCropVignetteRoundness="0"
    crs:PostCropVignetteStyle="1"
    crs:PostCropVignetteHighlightContrast="0"
    crs:HasSettings="True">
   <crs:Name>
    <rdf:Alt>
     <rdf:li xml:lang="x-default">Film - Faded Matte</rdf:li>
    </rdf:Alt>
   </crs:Name>
   <crs:ShortName>
    <rdf:Alt>
     <rdf:li xml:lang="x-default">Faded Matte</rdf:li>
    </rdf:Alt>
   </crs:ShortName>
   <crs:Group>
    <rdf:Alt>
     <rdf:li xml:lang="x-default">Film Look</rdf:li>
    </rdf:Alt>
   </crs:Group>
   <crs:Description>
    <rdf:Alt>
     <rdf:li xml:lang="x-default">Dreamy low-contrast matte film: heavily lifted blacks, soft pastel colors, faded highlights. Ideal for travel, lifestyle and golden-hour scenes.</rdf:li>
    </rdf:Alt>
   </crs:Description>
   <crs:ToneCurvePV2012>
    <rdf:Seq>
     <rdf:li>0, 32</rdf:li>
     <rdf:li>64, 66</rdf:li>
     <rdf:li>128, 124</rdf:li>
     <rdf:li>192, 188</rdf:li>
     <rdf:li>255, 232</rdf:li>
    </rdf:Seq>
   </crs:ToneCurvePV2012>
   <crs:ToneCurvePV2012Red>
    <rdf:Seq>
     <rdf:li>0, 14</rdf:li>
     <rdf:li>128, 128</rdf:li>
     <rdf:li>255, 248</rdf:li>
    </rdf:Seq>
   </crs:ToneCurvePV2012Red>
   <crs:ToneCurvePV2012Green>
    <rdf:Seq>
     <rdf:li>0, 10</rdf:li>
     <rdf:li>128, 128</rdf:li>
     <rdf:li>255, 246</rdf:li>
    </rdf:Seq>
   </crs:ToneCurvePV2012Green>
   <crs:ToneCurvePV2012Blue>
    <rdf:Seq>
     <rdf:li>0, 28</rdf:li>
     <rdf:li>128, 126</rdf:li>
     <rdf:li>255, 220</rdf:li>
    </rdf:Seq>
   </crs:ToneCurvePV2012Blue>
  </rdf:Description>
 </rdf:RDF>
</x:xmpmeta>
