presets/04-Film-BW-Classic.xmp
<x:xmpmeta xmlns:x="adobe:ns:meta/" x:xmptk="Adobe XMP Core 5.6-c145">
 <rdf:RDF xmlns:rdf="http://www.w3.org/1999/02/22-rdf-syntax-ns#">
  <rdf:Description rdf:about=""
    xmlns:crs="http://ns.adobe.com/camera-raw-settings/1.0/"
    crs:PresetType="Normal"
    crs:UUID="9B32D7FBD22049E2B96CB1B2FE6DD020"
    crs:SupportsAmount="True"
    crs:SupportsColor="False"
    crs:SupportsMonochrome="True"
    crs:SupportsHighDynamicRange="True"
    crs:SupportsNormalDynamicRange="True"
    crs:SupportsSceneReferred="True"
    crs:SupportsOutputReferred="True"
    crs:CameraModelRestriction=""
    crs:Copyright=""
    crs:ContactInfo=""
    crs:Version="15.4"
    crs:ProcessVersion="11.0"
    crs:WhiteBalance="As Shot"
    crs:Treatment="Black &amp; White"
    crs:ConvertToGrayscale="True"
    crs:Contrast2012="+15"
    crs:Highlights2012="-15"
    crs:Shadows2012="+20"
    crs:Whites2012="-5"
    crs:Blacks2012="+6"
    crs:Texture="+10"
    crs:Clarity2012="+6"
    crs:Dehaze="+4"
    crs:GrayMixerRed="+20"
    crs:GrayMixerOrange="+25"
    crs:GrayMixerYellow="+20"
    crs:GrayMixerGreen="-10"
    crs:GrayMixerAqua="-15"
    crs:GrayMixerBlue="-25"
    crs:GrayMixerPurple="-10"
    crs:GrayMixerMagenta="0"
    crs:SplitToningShadowHue="220"
    crs:SplitToningShadowSaturation="4"
    crs:SplitToningHighlightHue="45"
    crs:SplitToningHighlightSaturation="4"
    crs:SplitToningBalance="0"
    crs:ColorGradeMidtoneHue="0"
    crs:ColorGradeMidtoneSat="0"
    crs:ColorGradeMidtoneLum="0"
    crs:ColorGradeShadowLum="0"
    crs:ColorGradeHighlightLum="0"
    crs:ColorGradeGlobalHue="0"
    crs:ColorGradeGlobalSat="0"
    crs:ColorGradeGlobalLum="0"
    crs:ColorGradeBlending="50"
    crs:GrainAmount="28"
    crs:GrainSize="25"
    crs:GrainFrequency="55"
    crs:PostCropVignetteAmount="-10"
    crs:PostCropVignetteMidpoint="50"
    crs:PostCropVignetteFeather="60"
    crs:PostCropVignetteRoundness="0"
    crs:PostCropVignetteStyle="1"
    crs:PostCropVignetteHighlightContrast="0"
    crs:HasSettings="True">
   <crs:Name>
    <rdf:Alt>
     <rdf:li xml:lang="x-default">Film - B&amp;W Classic</rdf:li>
    </rdf:Alt>
   </crs:Name>
   <crs:ShortName>
    <rdf:Alt>
     <rdf:li xml:lang="x-default">B&amp;W Classic</rdf:li>
    </rdf:Alt>
   </crs:ShortName>
   <crs:Group>
    <rdf:Alt>
     <rdf:li xml:lang="x-default">Film Look</rdf:li>
    </rdf:Alt>
   </crs:Group>
   <crs:Description>
    <rdf:Alt>
     <rdf:li xml:lang="x-default">Classic Tri-X style black &amp; white film: rich contrast, bright skin, dark dramatic skies, punchy grain and a whisper of selenium tone.</rdf:li>
    </rdf:Alt>
   </crs:Description>
   <crs:ToneCurvePV2012>
    <rdf:Seq>
     <rdf:li>0, 14</rdf:li>
     <rdf:li>64, 54</rdf:li>
     <rdf:li>128, 130</rdf:li>
     <rdf:li>192, 204</rdf:li>
     <rdf:li>255, 248</rdf:li>
    </rdf:Seq>
   </crs:ToneCurvePV2012>
  </rdf:Description>
 </rdf:RDF>
</x:xmpmeta>
